X:1
T:Anglais efter Per Nilsson Dahlberg
T:(SvL Skne nr. 202)
S:efter Per Nilsson Dahlberg
S:Svenska Ltar
R:Anglais
Z:Patrik Mnsson, 2009-01-03
O:Nym, Skne
M:2/4
L:1/16
K:D
|: dDFA dfed | cEAc egfe | dDFA dfed | (ce)ac d4 :|
|: a2aa a2a2 | (d'2c'2) b2a2 | g2f2 | e2b2 | (ag)ec d4 :|
